assets/images/icons/wine.svg

<svg viewBox="0 0 50 50" xmlns="http://www.w3.org/2000/svg"><path d="m14.3125 2-.25.65625s-3.0625 8.09375-3.0625 16.34375c0 7.226563 5.957031 12.503906 13 12.96875v6.125c0 .949219-.445312 1.746094-1.25 2.5-.804687.753906-1.972656 1.402344-3.15625 1.90625-2.367187 1.007813-4.75 1.40625-4.75 1.40625-.011719 0-.019531 0-.03125 0-.71875.144531-1.390625.515625-1.90625 1.03125s-.90625 1.230469-.90625 2.0625c0 .550781.449219 1 1 1h24c.550781 0 1-.449219 1-1 0-.832031-.390625-1.546875-.90625-2.0625s-1.1875-.886719-1.90625-1.03125c-.011719 0-.019531 0-.03125 0 0 0-2.382812-.398437-4.75-1.40625-1.183594-.503906-2.351562-1.152344-3.15625-1.90625-.804687-.753906-1.25-1.550781-1.25-2.5v-6.125c7.042969-.464844 13-5.742187 13-12.96875 0-8.25-3.0625-16.34375-3.0625-16.34375l-.25-.65625zm1.4375 2h18.5c.207031.574219 1.175781 3.316406 1.90625 7-.019531 0-.042969 0-.0625 0h-22.25c.730469-3.683594 1.699219-6.425781 1.90625-7zm20.71875 8.9375h.03125c.296875 1.902344.5 3.953125.5 6.0625 0 6.429688-5.476562 11-12 11-6.523437 0-12-4.570312-12-11 0-2.085937.207031-4.113281.5-6 .0625.007813.125.007813.1875 0h22.40625c.128906.003906.253906-.019531.375-.0625zm-11.46875 27.96875c.273438.398438.527344.796875.875 1.125 1.070313 1 2.402344 1.753906 3.71875 2.3125 2.617188 1.113281 5.191406 1.527344 5.21875 1.53125h.03125c.066406.015625.117188.097656.1875.125h-20.0625c.070313-.027344.121094-.109375.1875-.125h.03125c.027344-.003906 2.601563-.417969 5.21875-1.53125 1.316406-.558594 2.648438-1.3125 3.71875-2.3125.347656-.328125.601563-.726562.875-1.125z" fill="#d59567"/></svg>

<?xml version="1.0" encoding="UTF-8"?>


<svg xmlns="http://www.w3.org/2000/svg" viewBox="0 0 50 50" version="1.1">
<g id="surface1" fill="#D59567">
<path style="" d="M 14.3125 2 L 14.0625 2.65625 C 14.0625 2.65625 11 10.75 11 19 C 11 26.226563 16.957031 31.503906 24 31.96875 L 24 38.09375 C 24 39.042969 23.554688 39.839844 22.75 40.59375 C 21.945313 41.347656 20.777344 41.996094 19.59375 42.5 C 17.226563 43.507813 14.84375 43.90625 14.84375 43.90625 C 14.832031 43.90625 14.824219 43.90625 14.8125 43.90625 C 14.09375 44.050781 13.421875 44.421875 12.90625 44.9375 C 12.390625 45.453125 12 46.167969 12 47 C 12 47.550781 12.449219 48 13 48 L 37 48 C 37.550781 48 38 47.550781 38 47 C 38 46.167969 37.609375 45.453125 37.09375 44.9375 C 36.578125 44.421875 35.90625 44.050781 35.1875 43.90625 C 35.175781 43.90625 35.167969 43.90625 35.15625 43.90625 C 35.15625 43.90625 32.773438 43.507813 30.40625 42.5 C 29.222656 41.996094 28.054688 41.347656 27.25 40.59375 C 26.445313 39.839844 26 39.042969 26 38.09375 L 26 31.96875 C 33.042969 31.503906 39 26.226563 39 19 C 39 10.75 35.9375 2.65625 35.9375 2.65625 L 35.6875 2 Z M 15.75 4 L 34.25 4 C 34.457031 4.574219 35.425781 7.316406 36.15625 11 C 36.136719 11 36.113281 11 36.09375 11 L 13.84375 11 C 14.574219 7.316406 15.542969 4.574219 15.75 4 Z M 36.46875 12.9375 C 36.480469 12.9375 36.488281 12.9375 36.5 12.9375 C 36.796875 14.839844 37 16.890625 37 19 C 37 25.429688 31.523438 30 25 30 C 18.476563 30 13 25.429688 13 19 C 13 16.914063 13.207031 14.886719 13.5 13 C 13.5625 13.007813 13.625 13.007813 13.6875 13 L 36.09375 13 C 36.222656 13.003906 36.347656 12.980469 36.46875 12.9375 Z M 25 40.90625 C 25.273438 41.304688 25.527344 41.703125 25.875 42.03125 C 26.945313 43.03125 28.277344 43.785156 29.59375 44.34375 C 32.210938 45.457031 34.785156 45.871094 34.8125 45.875 C 34.8125 45.875 34.84375 45.875 34.84375 45.875 C 34.910156 45.890625 34.960938 45.972656 35.03125 46 L 14.96875 46 C 15.039063 45.972656 15.089844 45.890625 15.15625 45.875 C 15.15625 45.875 15.1875 45.875 15.1875 45.875 C 15.214844 45.871094 17.789063 45.457031 20.40625 44.34375 C 21.722656 43.785156 23.054688 43.03125 24.125 42.03125 C 24.472656 41.703125 24.726563 41.304688 25 40.90625 Z"/>
</g>
</svg>
